**kern	**kern	**dynam
*part1	*part1	*part1
*staff2	*staff1	*
*I"Piano	*	*
*clefG2	*clefG2	*
*k[b-]	*k[b-]	*
=1	=1	=1
2AA 2E	12r	>
.	12AL	.
.	12c#XJ	.
.	12eL	.
.	12c#	.
.	12AJ	.
=	=	=
2D 2F#X	12r	] p
.	12cnL	.
.	12dJ	.
.	12aL	.
.	12d	.
.	12cJ	.
=	=	=
[2GG [2D 2F#X	12r	.
.	12AL	.
.	12dJ	.
.	12aL	.
.	12d	.
.	12AJ	.
=	=	=
*^	*^	*
4G	2GG] 2D]	(4b-	12b-L	.
.	.	.	12d	.
.	.	.	12B-J	.
4BB-	.	4g)	12gL	.
.	.	.	12d	.
.	.	.	12GJ<	.
*v	*v	*	*	*
*	*v	*v	*
=	=	=
2C	12r	<
.	12AL<	.
.	12cJ<	.
.	12fL	.
.	12c<	.
.	12AJ<	.
=	=	=
2BBn	12r	.
.	12G#XL<	.
.	12dJ<	.
.	12fL	.
.	12d	.
.	12G#J<	.
=	=	=
2C	12r	.
.	12AL	.
.	12cJ	.
.	12fL	.
.	12c	.
.	12AJ	.
=	=	=
*-	*-	*-
!!!system-decoration: {(s1,s2)}
!!!RDF**kern: < = below
